X:1
T:Title
%%score [ 1 2 3 4 ]
L:1/8
Q:1/4=560
M:2/1
K:F
V:1 treble nm="MusicXML Part"
V:2 treble-8 nm="MusicXML Part"
V:3 treble-8 nm="MusicXML Part"
V:4 bass nm="MusicXML Part"
V:1
 z16 | z16 | z16 | z8 z4 c4 | c4 c4 B4 B4 | A4 G2 F2 E4 A4 | G4 F4 F4 E4 | F4 z4 c4 z4 | %8
w: |||Al-|hor quan- doar- ri-|va- * * va La|grua suo ser- vi-|dor gru|
 A4 z4 c4 z4 | F4 z4 c8 | A6 B2 c4 d4 | B4 A8 G2 F2 | E4 G4 C4 F4 | F4 E4 F8 | z4 A4 A4 A4 | %15
w: gru gru|gru gru|gru * * *|* gen- * *|* * til am-|ba- scia- dor|Che dis- se|
 A4 A4 B4 B4- | B4 A8 G4 | A8 z4 c4 | c6 BA G4 A4- | A2 G2 A2 B2 c4 A4- | A2 B2 c4 F4 G4 | %21
w: non le- ve tor-|* naa- dor-|mir tor-|na * * * tor-|* * * * na, tor-|* * * * na|
 A6 G2 F2 E2 F4- | F4 E2 D2 E8 | F8 z4 F4 | E4 E4 D4 D4 | C4 C4 z8 | z16 | z4 F4 A4 A4 | B4 B4 c8 | %29
w: a- * * * *|* * * dor-|mir. Dal|le- cto me le-|va- va||al- hor quan-|doar- ri- va-|
 C4 D4 C4 F4 | F4 E4 F4 z4 | c4 z4 A4 z4 | c4 z4 F4 z4 | c8 A6 B2 | c4 d4 B4 A4- | A4 G2 F2 E4 G4 | %36
w: va la grua suo|ser- vi- dor|gru gru|gru gru|gru gru *|* o- gnun di-|* * * ca gru|
 C4 F4 F4 E4 | F4 c4 A4 c4 | z4 c4 A4 c4 | z4 c6 B2 A4- | A4 G2 F2 E2 D2 G4- | G2 F2 F8 E4 | F16 |] %43
w: gru gru gru gru|gru gru gru gru|gru gru gru|tor- * *||* na a- dor-|mir.|
V:2
 z16 | z16 | z16 | z8 z4 F4 | A4 A4 G4 G4 | F2 G2 A2 B2 c4 c4 | B4 A4 G4 G4 | F16 | c4 z4 A4 z4 | %9
w: |||Al-|hor quan- doar- ri-|va- * * * va La|grua suo ser- vi-|dor|gru gru|
 c4 z4 F4 c4- | c4 d4 e4 f4- | f4 f4 f4 F4 | G8 A4 d4 | c8 A8 | z4 c4 c4 c4 | c4 c4 f8 | %16
w: gru gru gru|* * * gru|* gen- til am-|ba- * *|scia- dor|Che dis- se|non le- ve|
 z4 f4 d4 e4 | f4 e2 d2 c6 d2 | e12 f4 | z4 f4 e4 f4 | c4 A4 B4 G4 | F8 c8- | c4 d4 c8 | A8 z4 A4 | %24
w: tor- naa- dor-|mir tor- * * *|* na|tor- na, tor-|* na a- dor-|mir, tor-|* naa- dor-|mir. Dal|
 A4 A4 B4 B4 | A4 G2 F2 G4 c4 | B4 A4 G4 G4 | F8 z8 | z16 | z16 | z8 c4 z4 | A4 z4 c4 z4 | %32
w: le- cto me le-|va- va per ser- vir|il Si- gnor gru|gru|||gru|gru gru|
 F4 z4 F4 c4 | A4 c8 d4 | e4 f8 f4 | f4 F4 G8 | A4 d4 c8 | A4 F4 z4 c4 | A4 c4 z4 c4 | %39
w: gru gru gru|gru gru *|* o- gnun|di- ca gru|gru gru gru|gru gru gru|gru gru gru|
 A4 c4 z4 c4- | c2 d2 e2 f2 g4 z4 | c8 c8 | c16 |] %43
w: gru gru tor-|* * * * na|a- dor-|mir.|
V:3
 z4 F4 A4 A4 | B4 B4 c8 | c4 d4 c4 f4 | f4 e4 f8 | z16 | z16 | z16 | z4 c4 z4 A4 | z4 c4 z4 F4 | %9
w: Dal le- cto|me le- va-|va per ser- vir|il Si- gnor||||gru gru|gru gru|
 z4 F4 c4 A4- | A4 G2 F2 G4 d4- | d4 c2 B2 c8- | c4 B4 A4 B4 | G4 G4 F8 | z4 f4 f4 f4 | f4 f4 d8- | %16
w: gru gru gru|* * * * gen-||* * til am-|ba- scia- dor|Che dis- se|non le- ve|
 d4 c4 B4 B4 | A16 | z4 c4 c8 | z4 c4 c8 | z4 c4 d4 e4 | f8 F8 | G8 G8 | F16 | z16 | z16 | z16 | %27
w: * tor- naa- dor-|mir|tor- na|tor- na,|tor- * *|* na|a- dor-|mir.||||
 z4 c4 c4 c4 | d4 d4 c2 B2 A2 G2 | A4 B4 A4 F4 | G4 G4 F8- | F8 F6 G2 | A4 c4 z4 F4 | c4 A8 G2 F2 | %34
w: Al- hor quan-|doar- ri- va- * * *|va La grua suo|ser- vi- dor|* gru gru|gru gru gru|gru gru gru *|
 G4 d8 c2 B2 | c12 B4 | A4 B4 G4 G4 | F16- | F16- | F16 | c12 B4 | c4 A4 G8 | F16 |] %43
w: o- gnun di- *|ca tor-|* na a- dor-|mir|||tor- *|na a- dor-|mir.|
V:4
 z4 C4 C4 C4 | D4 D4 C2 B,2 A,2 G,2 | A,4 B,4 A,4 F,4 | G,4 G,4 F,8 | z16 | z16 | z16 | z16 | %8
w: Dal le- cto|me le- va- * * *|va per ser- vir|il Si- gnor|||||
 F,8 F,4 z4 | A,4 C4 z4 F,4- | F,4 E,2 D,2 C,4 B,,4- | B,,4 F,8 E,2 D,2 | C,4 _E,4 F,4 B,,4 | %13
w: gru gru|gru gru gru|* gru * gru gen-||til am- ba- *|
 C,8 C8 | z4 F,4 F,4 F,4 | F,4 F,4 B,,8- | B,,4 F,4 G,4 G,4 | D,6 E,2 F,4 E,2 D,2 | C,8 z4 F,4 | %19
w: scia- dor|Che dis- se|non le- ve|* tor- naa- dor-|mir, * * * *|* tor-|
 F,4 E,2 D,2 C,4 F,4 | F,8 z8 | z4 F,4 F,4 E,2 D,2 | C,4 B,,4 C,8 | z4 D,4 D,4 D,4 | %24
w: na * * a- dor-|mir,|tor- na * *|a- dor- mir.|Dal le- cto|
 C,4 C,4 B,,2 C,2 D,2 E,2 | F,4 E,2 D,2 E,4 C,4 | D,4 F,4 F,4 E,4 | F,16 | z16 | z16 | z8 z4 C4 | %31
w: me le- va- * * *|va * * * per|ser- vir il Si-|gnor|||gru|
 z4 A,4 z4 C4 | z4 F,4 C4 A,4 | z4 F,8 E,2 D,2 | C,4 B,,8 F,4- | F,4 E,2 D,2 C,4 _E,4 | %36
w: gru gru|gru gru gru|gru gru *|o- gnun di-|* * * ca tor-|
 F,4 B,,4 C,8 | C4 A,4 C4 z4 | C4 A,4 C4 z4 | C4 A,4 C4 F,4- | F,4 E,2 D,2 C,2 D,2 _E,4- | %41
w: na a- dor-|mir gru gru||gru gru gru tor-||
 E,4 F,4 C,8 | [F,C]16 |] %43
w: * naa- dor-|mir.|

